src/assets/img/svg/logout.svg

<?xml version="1.0" encoding="utf-8"?>
<svg width="20px" height="20px" viewBox="0 0 20 20" version="1.1" xmlns:xlink="http://www.w3.org/1999/xlink" xmlns="http://www.w3.org/2000/svg">
  <defs>
    <path d="M7.83359 13.7808L9.31854 15.2658L14.5843 10L9.31854 4.73421L7.83359 6.21916L10.5507 8.94684L0.366703 8.94684L0.366703 11.0532L10.5507 11.0532L7.83359 13.7808ZM17.2172 0.521579L2.47302 0.521579C1.30401 0.521579 0.366703 1.46942 0.366703 2.62789L0.366703 6.84053L2.47302 6.84053L2.47302 2.62789L17.2172 2.62789L17.2172 17.3721L2.47302 17.3721L2.47302 13.1595L0.366703 13.1595L0.366703 17.3721C0.366703 18.5306 1.30401 19.4784 2.47302 19.4784L17.2172 19.4784C18.3757 19.4784 19.3235 18.5306 19.3235 17.3721L19.3235 2.62789C19.3235 1.46942 18.3757 0.521579 17.2172 0.521579Z" id="path_1" />
    <clipPath id="mask_1">
      <use xlink:href="#path_1" />
    </clipPath>
  </defs>
  <g id="iconsicoutline-contact_support-24px">
    <path d="M7.83359 13.7808L9.31854 15.2658L14.5843 10L9.31854 4.73421L7.83359 6.21916L10.5507 8.94684L0.366703 8.94684L0.366703 11.0532L10.5507 11.0532L7.83359 13.7808ZM17.2172 0.521579L2.47302 0.521579C1.30401 0.521579 0.366703 1.46942 0.366703 2.62789L0.366703 6.84053L2.47302 6.84053L2.47302 2.62789L17.2172 2.62789L17.2172 17.3721L2.47302 17.3721L2.47302 13.1595L0.366703 13.1595L0.366703 17.3721C0.366703 18.5306 1.30401 19.4784 2.47302 19.4784L17.2172 19.4784C18.3757 19.4784 19.3235 18.5306 19.3235 17.3721L19.3235 2.62789C19.3235 1.46942 18.3757 0.521579 17.2172 0.521579Z" id="iconsicoutline-exit_to_app-24px" fill="none" stroke="none" />
    <g clip-path="url(#mask_1)">
      <g id="🎨-color" transform="translate(-2 -2)">
        <path d="M0 0L24 0L24 24L0 24L0 0Z" id="BG" fill="#FFFFFF" fill-rule="evenodd" stroke="none" />
      </g>
    </g>
  </g>
</svg>

<svg width="20" height="20" xmlns:xlink="http://www.w3.org/1999/xlink" xmlns="http://www.w3.org/2000/svg">
  <defs>
    <clipPath id="b9">
      <use xlink:href="#a9"/>
    </clipPath>
    <path d="m7.834 13.78 1.485 1.486L14.584 10 9.32 4.734 7.834 6.22l2.717 2.728H.367v2.106H10.55l-2.717 2.728ZM17.217.523H2.473A2.106 2.106 0 0 0 .367 2.628V6.84h2.106V2.628h14.744v14.744H2.473V13.16H.367v4.213c0 1.159.937 2.106 2.106 2.106h14.744a2.112 2.112 0 0 0 2.107-2.106V2.628A2.112 2.112 0 0 0 17.216.522Z" id="a9"/>
  </defs>
  <path d="m7.834 13.78 1.485 1.486L14.584 10 9.32 4.734 7.834 6.22l2.717 2.728H.367v2.106H10.55l-2.717 2.728ZM17.217.523H2.473A2.106 2.106 0 0 0 .367 2.628V6.84h2.106V2.628h14.744v14.744H2.473V13.16H.367v4.213c0 1.159.937 2.106 2.106 2.106h14.744a2.112 2.112 0 0 0 2.107-2.106V2.628A2.112 2.112 0 0 0 17.216.522Z" fill="none"/>
  <g clip-path="url(#b9)">
    <path d="M-2-2h24v24H-2V-2Z" fill="#FFF" fill-rule="evenodd"/>
  </g>
</svg>
